X:1
T:Violin Sonata No. 1 in G Minor
T:Violin Sonata No. 1 in G Minor
T:BWV 1001
T:Johann Sebastian Bach
C:Johann Sebastian Bach
%%score ( 1 2 3 4 )
L:1/8
Q:1/4=25
M:4/4
K:F
V:1 treble nm="Violin" snm="Vln."
V:2 treble 
V:3 treble 
V:4 treble 
V:1
"^Adagio" g2- g/4(f/4_e/4d/4c/4B/4A/4B/8G/8) c2 x2 | !wedge!^f2 x2 g z/4 (G/4A/8B/8c/8d/8) _eB | %2
 (B/A/)(_e/d/) z (b/^f/) g x (B/4^F/4G/4D/4_E/4d/8c/8B/8c/8Tc/8B/16c/16) | %3
 (gT^f) ac (B/d/f/a/) gB | A/(b/4a/8g/8Tf/>e/) fA (f/d/)_e (b/g/)(g/e/) | (_e/^c/)a x2 x4 | %6
 D/(g/f/g/4e/4) fA (A/D/)G/f/ e-(e/8f/8g/8a/8b/8e/8f/8g/8) | %7
 (d^c) (G/4F/G/8E/8F/)d/ (d/4>c/4=B/4c/4d/4e/4f/4g/8e/8) Tc>d | %8
 d2- d/4(d/4=c/4B/4A/8B/8A/8B/8TB/4A/8B/8) c/(_e/4d/4)e- ^f x | %9
 g x (g/4=f/4_e/4d/4c/4B/4A/8G/8^F/8G/8) A2 =B x | %10
 (=B/d/)(d/c/) (_e/d/)(d/e/){e} d/>(_B/c/4d/4e/4f/8g/8) (_a/B/D/)a/ | %11
 _E/(_a/g) _d(E/4G/4B/4d/4) _A,/c/ a/(g/4f/4) (_eT=d/>)e/ | %12
 !fermata!_e2 (=B,/4D/4F/4_A/4=B/4d/4f/4_a/8g/8) g/- g/4(a/8g/8^f/8g/8d/8e/8B/8c/8^F/4) =G/4e/(d/Tc/8B/8c/) | %13
 c3/4(_B/8_A/8G/4=F/4_E/4D/4) (C/4=B,/4C/4G,/4C/4E/4G/4c/4) (D/c/4f/4)!trill(!T=B- !trill)!B/4(=A/4G/4A/4B/4c/4d/4f/8_e/8) | %14
 f2- f/4(_a/4g/4f/4g/4f/4_e/4d/4) e z/4 (c/4d/8e/8f/8g/8) ae | %15
 (_e/d/)(_a/g/) gg g x (f/4g/4e/4f/<Tf/e/8f/8) | g2 ff (G/4=B/4d/4f/4)(_a/g/) _eg | %17
 =a2 B/-B/8(A/8G/8^F/8G/4D/4B,/4G,/4) (C/4_E/4B/4G/4)_A z _a/^f/ | %18
 (^f/4g/4=a/4f/4)d B,/>(d/c/4B/4A/4B/8G/8) (A,/G/c/)A/ (G/^F/D/)c/ | %19
 G,/>(c/B/c/4A/4) B/>(G,/A,/C/4B,/4) C/(D/_E/)(G/ _A/)(=B/c/)_e/ | %20
 (g^f) (b3/4(3a/8g/8f/8)g g/>(B/c/4d/4e/4f/4) (g/8a/8b/8a/8b/8g/8_a/8f/16g/16) (g/Tf/4>g/4) | %21
 !fermata![Bg]8 |][M:2/2][Q:1/4=90]"^Fuga"[Q:1/4=90]"^Allegro" z ddd dc/B/ cA | B z _e z A z d z | %24
 z ggg gf/_e/ fd | _e x C/(B/A/B/4c/4) z ddd | dc/B/ cA B z b z | ba/g/ (a/^f/)g f/ x/ x x2 | %28
 D/A/^c/=e/ =f/a/d/=c/ =B/d/f/_a/ g/f/_e/d/ | _e/G/c/d/ e/g/c/_B/ A/c/e/g/ f/e/d/c/ | %30
 d/A/B/^F/ G/B/d/=F/ E/G/B/d/ c/A/B/G/ | ^F/A/c/_e/ d/c/B/A/ B/G/d/=F/ _E/d/g/c/ | %32
 ^f x bb ba/g/ aa | _a/(g/a/)^f/ g=f _ed c_B | (_A/^F/)(F/G/) G/B,/=A,/G,/ A,/G/c/_e/ D/G/=A/F/ | %35
 Gd'd'd' d'c'/b/ c'a | b z _e' z a z d'2- | d'c' c'c' c'b/a/ bg | a z d' z g z c'2- | %39
 c'b bb ba/g/ ab/a/ | g z c' z c'b/a/ bc'/b/ | a z d' z d' z c' z | f z b z afga | %43
 ba g z gf/e/ ff | fe/d/ e^c d z z d | d z ^c>d d z D z | E z z ^F GGGG | G=F/_E/ FD z ccc | %48
 cB/A/ Bc/B/ A z d z | d(e/f/) (e/d/)(^c/d/) ca aa | ag/f/ gg gf/e/ ff | (ba) (a^g) (ga) (a^f) | %52
 (^f=g) (ge) (e=f) (fd) | (d_e) (e^c) c(b/^g/) ac | d(b/^g/) a^c' (d'=c') (c'b) | %55
 (ba) (a^c') (c'd') d'g | g>a fe e4 | e4 agaf | g4 gfge | fefg abag | fefg aga=b | %61
 ^c'=bc'd' e'f'e'd' | ^c'=bc'd' e'd'e'c' | D/d/f/a/ d'/a/f/d/ A/d'/=c'/_b/ c'/a/^f/d/ | %64
 G,/G/B/d/ g/d/B/G/ D/g/=f/_e/ f/d/=B/G/ | C/c/_e/g/ c'/g/e/c/ G/c'/b/a/ b/g/=e/c/ | %66
 F/c/f/g/ _a/f/d/B/ _E/B/_e/f/ g/e/c/=A/ | f/d/=B/G/ _e/c/_A/F/ _d/_B/G/_E/ c/A/F/=D/ | %68
 G,/D/F/=B/ d/B/F/D/ G,/D/F/B/ d/B/F/D/ | G,/C/_E/G/ c/G/E/C/ G,/C/E/G/ c/G/E/C/ | %70
 _A,/C/_E/G/ c/G/E/C/ A,/C/E/G/ c/G/E/C/ | =A,/D/^F/A/ c/A/F/D/ A,/D/F/A/ c/A/F/D/ | %72
 G,/C/_E/G/ c/(_e/_d/)(=B/ c/)(_b/_a/)(^f/ g/)(=f/=e/f/) | f z c' z c' z =bd' | %74
 (_E/d/g/)=B/ z g gf/_e/ fd | _ed/c/ _d=B c>=d B>c | cCCC D z z =E | FF A z B z c z | %78
 z fff f_e/d/ e(c/d/4e/4) | dbbb ba/g/ a=b | c'c'c'c' c'_b/a/ bc'/g/ | a(b/f/) g(a/g/) f(g/d/) x2 | %82
 z ddd d_e/d/ cB | Afff fg/f/ _ed | g(a/b/) (b/a/g/f/) bf _e/(d/c/)B/ | %85
 B,/d/c/d/ (B/d/)(A/d/) (G/d/)(F/d/) (_E/d/)(D/d/) | %86
 (_E/d/g/)f/ _e/d/c/B/ (A/c/)(G/c/) (^F/c/)(=E/c/) | (D/c/a/)c/ B/A/B/G/ A/D/f/_A/ G/=F/G/_E/ | %88
 F/B,/d/F/ _E/D/E/C/ D/G,/B/D/ E/C/c/=E/ | ^F/D/A/F/ c/A/_e/c/ ^f/c/(a/f/ e/c/A/F/) | %90
 (D/c/^f/)c/ f/c/a/c/ (D/c/f/)c/ f/c/a/c/ | (D/B/d/)B/ d/B/g/B/ (D/B/d/)B/ d/B/g/B/ | %92
 (D/A/^f/)d/ f/d/c'/d/ (D/d/f/)d/ f/d/c'/d/ | (D/d/g/)d/ g/d/b/d/ (D/d/g/)d/ g/d/b/d/ | %94
 (D/^c/e/)c/ e/c/b/c/ (D/c/e/)c/ e/c/b/g/ | x2 d'd' d'c'/b/ c'c' | c'b/a/ bb (ba) (ag) | %97
 (^fg) (g=e) (e=f) (fd) | d(_e/d/) e/g/b/d/ ^c/(=e/a/)c/ d/f/a/=c/ | %99
 =B/(_a/g/f/) g/d/_e/B/ c/(a/g/f/) g/d/e/c/ | ^F/A/c/(_e/ d/c/)a/(c/ d/e/)(A/B/ c/)F/G/A/ | %101
 z ddd dc/=B/ ca | cc/_B/ ca BB/A/ Bg | b>a x2 ^fggg | g x ^f x =f x _e x | _e z db g_a/g/ a/^f/g | %106
 ^f z z f ga bf | ^fggg g>a f>g | G,/G/B/d/ g/d/B/G/ A/g/=f/_e/ f/d/=B/G/ | %109
 G,/G/c/d/ _e/c/_A/G/ ^F/e/d/c/ d/_B/G/=F/ | G,/_E/G/=B/ c/_e/_A/G/ =A,/C/^F/=A/ c/e/^f/a/ | %111
 B,/D/G/B/ d/^f/g/b/ C/_E/G/c/ _e/g/a/c'/ | D/c'/b/d/ ^c/b/a/=c/ =B/a/g/_B/ A/g/f/_A/ | %113
 G/f/_e/G/ ^F/e/d/=F/ =E/(d/c/=B/ c/)(_E/D/C/) | %114
 ^f3-[Q:1/4=40] (f/8g/8a/8f/8g/8a/8c/8d/8 _e/8c/8d/8e/8A/8B/8c/8A/8B/8c/8^F/8G/8A/8F/8G/8A/8) z g | %115
 g/-(g/4a/4g/4^f/4g/8=e/8f/4) Tf>g g4 |][M:12/8][Q:1/4=50]"^Siciliana" z3 z z b (ba)g (gf) z | %117
 z fg z _e/c/d z d/f/e/d/ c z z | z c/B/c z cf z _e/d/e (A,/C/F/A/4c/4e/g/) | %119
 f(_e/d/)(c/B/) d(c/4d/4e/)d B z z z z b | ba z z z a ag z z ba | %121
 z (^f/a/)g z (g/b/)a z (a/b/)(b/c'/) (c'/4b/4a/4g/4f/4=e/4d/4c/4B/4A/4B/4c/4) | %122
 ^F(d'/a/)c' G/(b/a/)(^f/g/)d/ _ec z z z _a | %123
 ^f(g/d/)(_e/d/) z/ c/(B/A/)(G/^F/) (B,/4D/4=E/4F/4G/4A/4B/4c/4d/4c/4_e/4d/4) z (c/B/A/G/) | %124
 G3/2 z/ z z z B BA z z z =B | =Bc z z z c' c'_b z z z b | ba z z z _a (ag) z z z g | %127
 f z d _e z f (e/d/)(e/d/)(c/B/) (B/A/)(c/B/)(d/c/) | %128
 _e z/ g/c' (b/a/g/f/)e (ed/)f/b (_a/f/d/B/)a | %129
 (d/B/)c/A/D/f/ (c/A/)(B/G/)C/_e/ (B/G/)(A/F/)B,/d/ (_E/d/g)(f/e/) | %130
 (dc) x x x c f>gf f(_e/d/c/=B/) | _e>fe e(d/c/_B/A/) (G/F/)(_E/D/)E fe/c/d | %132
 c/B/_ed x x f =e>fe e/(g/f/e/d/c/) | f>d_e x2 x (e/d/)gf z z c | B z z z z b ba z z z a | %135
 ab z z3 z6 |][M:3/8][Q:1/4=130]"^Presto" g/b/g/d/g/d/ | B/d/B/G/B/G/ | D/G/D/B,/D/B,/ | %139
 G,/B,/D/G/B/d/ | g/(d/c/B/A/G/) | ^F/D/F/A/d/^f/ | a/(_e/d/c/B/A/) | G/D/G/B/d/g/ | %144
 b/g/_e/c/e/g/ | a/f/d/B/d/f/ | g/_e/c/A/c/e/ | D/g/(^f/g/a/)c/ | G/c/(B/c/d/)F/ | C/f/(e/f/g/)B/ | %150
 F/B/(A/B/c/)_E/ | B,/_e/(d/e/f/)_A/ | _E/B,/E/G/E/G/ | c/G/c/_e/c/e/ | F/C/F/A/F/A/ | %155
 d/A/d/f/d/f/ | G/D/G/B/G/B/ | _e/B/e/g/e/g/ | A/F/A/c/A/c/ | f/c/f/a/f/a/ | (B/c/d/)b/a/b/ | %161
 (c/d/_e/)b/a/b/ | (d/_e/f/)b/a/b/ | (_e/f/g/)b/a/b/ | (A/c/_e/)g/f/e/ | (d/B/)(_e/B/)f/_A/ | %166
 (G/=A/B/)D/C/A/ | B,/(D/C/B,/A,/G,/) | A,/(G/^F/E/D/)(c/ | B/A/G/)(=f/e/d/ | ^c/)(b/a/g/f/e/) | %171
 (f/d/)(g/d/)a/=c/ | B/(a/g/f/e/d/) | (e/c/)(f/c/)g/B/ | A/(g/f/e/d/^c/) | (d/B/)(e/B/)f/A/ | %176
 G/(f/e/d/^c/=B/) | (^c/A/)(d/A/)e/G/ | F/d/B/G/E/=c/ | D/B/G/E/C/A/ | B,/G/E/^C/A,/F/ | %181
 G,/(F/E/D/^C/=B,/) | A,/D/(^C/E/)(D/F/) | A,/E/(D/F/)(E/G/) | A,/F/(E/G/)(F/A/) | %185
 B,/G/(^F/A/)(G/B/) | ^C/(B/A/G/=F/E/) | F/D/F/A/d/f/ | a/d/A^c | d3 :: D/A,/D/^F/D/F/ | %191
 A/^F/A/d/A/d/ | ^f/d/f/a/f/a/ | d'/a/^f/d/A/^F/ | (D/E/^F/G/A/B/ | c/)_e/c/A/c/A/ | %196
 ^F/D/F/A/d/c/ | B/d/B/G/D/B,/ | (G,/A,/B,/C/D/_E/ | F/)_A/F/D/F/D/ | =B,/G,/B,/D/G/F/ | %201
 _E/C/E/G/c/d/ | _e/c/_A/F/A/c/ | d/B/G/_E/G/B/ | c/_A/F/D/F/A/ | G,/c/(=B/c/d/)F/ | %206
 C/f/(_e/f/g/)_B/ | F/B/(_A/B/c/)_E/ | B,/_e/(d/e/f/)_A/ | _E/_A/(G/A/B/)_D/ | (_A,/C/F/_A/G/F/) | %211
 (=B,/D/F/_A/G/F/) | (C/=E/F/_A/G/F/) | (D/F/=B/c/d/F/) | (_E/G/c/d/_e/c/) | (_a/g/f/_e/d/c/) | %216
 g/d/_e/c/G/=B/ | C/(F/_E/D/C/_B,/) | A,/C/F/C/F/A/ | F/A/c/A/c/_e/ | c/_e/(a/g/f/e/) | %221
 (d/c/B/c/d/=e/) | ^f/a/c'/a/f/a/ | ^f/c/f/c/A/c/ | A/^F/A/F/D/c/ | B/G/B/G/=E/d/ | %226
 c/A/c/A/^F/_e/ | d/B/d/B/G/=f/ | _e/c/e/c/A/g/ | ^f/(d/=e/f/g/a/) | b/d/g/b/c/_e/ | a/f/d/B/d/f/ | %232
 g/B/_e/g/A/c/ | f/d/B/G/B/d/ | _e/G/c/e/F/A/ | d/B/G/=E/G/B/ | (c/A/)(B/G/)^F/A/ | %237
 (D/E/^F/G/A/B/) | (c/_e/)(d/g/)(^f/b/) | (a/g/^f/=e/d/c/) | B/_e/(d/B/)(c/A/) | F/d/(c/A/)(B/G/) | %242
 _E/c/(B/G/)(A/^F/) | D/B/(A/^F/)(G/_E/) | C/A/(G/=E/)(^F/D/) | B,/(d/c/B/A/G/) | %246
 (_e/d/c/)(b/a/g/) | (^f/g/a/)d/_e/c/ | (=F/=B/d/)_A/G/F/ | =E/G/c/e/g/_B/ | (_E/A/c/)G/F/E/ | %251
 D/F/B/d/f/_A/ | G/_e/B/G/(_E/D/ | C/)(_e/c/B/A/G/ | ^F/)d/A/F/(D/C/ | B,/)(d/B/A/G/=F/ | %256
 E/)C/G/B,/A,/G/ | ^F/D/A/C/B,/A/ | G/_E/B/D/C/B/ | A/F/c/_E/D/c/ | B/G/d/F/=E/d/ | %261
 c/A/_e/G/^F/e/ | d/B/g/B/A/c/ | B/G/^F/A/D/C/ | B,/G/(^F/A/)(G/B/) | C/A/(G/B/)(A/c/) | %266
 D/B/(A/c/)(B/d/) | _E/c/(=B/d/)(c/_e/) | ^F/(_e/d/c/_B/A/) | B/d/g/b/g/d/ | B/G/D^f | g3 :| %272
V:2
 B2 x2 G^F- F/4(=E/4D/4E/4F/4G/4A/4c/8B/8) | D x x2 D x z G | F x z D _E x x2 | %3
 D2 z D G,/ x/ x z G, | ^C z z D G/ x/ z z (B/G/) | %5
 G z F/>(a/g/4f/4=e/4d/4) (E/d/g/)e/ (d/^c/)(A/g/) | x2 z C B, x x2 | A, x x2 A, x x2 | %8
 D2 x2 A,/ x/ x e/4(_e/4d/4c/4B/c/4A/4) | G, x x2 D2 G, x | D_E FG F x x2 | x4 x F B, x | %12
 =A,2 x2 _E/ x/ x x2 | x8 | G,2 x2 C x x C | B, x z G, _A, x x2 | G, x z =B, C x z C | %17
 ^F x x2 x2 (_e/c/)(c/=A/) | A/ x/ x x2 x4 | x8 | D2 x E x4 | !fermata![G,D]8 |][M:2/2] x8 | %23
 z GGG GF/_E/ FD | _E z E z D z D z | GG, x2 C z B, z | A, z D z G, x FD | %27
 _E x x2 D/ x/ x B/g/A/G/ | x8 | x8 | x8 | x8 | dD GG _E z =FF | D z _ED C x E/D/D/C/ | C x x2 x4 | %35
 G, x x2 x4 | z ggg gf/_e/ fd | _ee/d/ ef/e/ d z g z | gfff f_e/d/ ec | dd/c/ d_e/d/ c z f z | %40
 f_e/d/ ef/e/ d z g z | gf/=e/ fg/f/ z AAA | AG/F/ GE FDEF | GF E z A, z DD | G, z z A, B, z z G, | %45
 A, z E>D DD DD | DC/B,/ CA, B, z G, z | A, z z =B, C z A, z | D z G z D z FG/F/ | %49
 ^G, z x2 =G, z F z | B z z E A z z D | G z F z E z A, z | D z D z ^C z D z | B, z B, z A, z z A, | %54
 A, z z A B z A z | g=f fe (ef) (f^c) | (^cA) dG AGAF | GFGE FEFD | E4 A4 | d^cde fgfe | %60
 d^cde fefd | edef gagf | edef gfge | x8 | x8 | x8 | x8 | x8 | x8 | x8 | x8 | x8 | x8 | %73
 G, z z2 G, z z2 | G, z z x G, z G z | C z _A, z =A, z G, z | C x x2 CB,/A,/ B,G, | %77
 A, z FF F_E/D/ EC | D z G, z C z z F | BB,B,B, F z z2 | z CCC G z z2 | F z _E z D z _e/c/A/F/ | %82
 B,B,B,A, G, z A,B, | CDDD G, z A,B, | _E z c z z D F z | x8 | x8 | x8 | x8 | x8 | x8 | x8 | x8 | %93
 x8 | x8 | (g/^f/)(e/d/) z B G z z A | ^F z z G _E z =E z | D z z2 C z z2 | B, z z2 A,/ z/ z z2 | %99
 G,/ x/ x x2 G,/ x/ x x2 | A,/ x/ x x2 x4 | B, z =B, z C z z2 | ^FA/G/ A x AG/F/G x | %103
 E3/2 x/ g/^f/g/a/ DDDD | DC/B,/ CA, =B,(C/B,/) CG, | A,(B,/A,/) B,D _E z z E | D z z D D z z D | %107
 _EDD^C D z z2 | x8 | x8 | x8 | x8 | x8 | x8 | D3 x x2 D^c | D z x2 G,4 |] %116
[M:12/8] B,>DF (_E/D/C/B,/)d F z z z z E | D z z C z B, F z z z A,C | z A/G/A z A=B z G/F/G x2 x | %119
 D z _E FEF B,>DF (E/D/C/B,/)d | F>BA (G/^F/=E/D/)c G,>G=F _E z z | DcB DBc Dcd _e/ x/ x2 | %122
 x6 C>_EG (=F/E/D/C/)c | cB^F GCD x2 x CD z | G,>B,D (C/B,/A,/G,/)G D>_ED (C/=B,/A,/G,/)F | %125
 z z/ C/D (F/_E/D/C/)_e G>DG (F/=E/D/C/)=e | z z/ F/f (_e/d/c/B/)d z z/ B,/_E (D/C/B,/=A,/)A | %127
 DG,/g/B CF/c/A B,G_E F z z | C z z z z A, B, z z z z B, | _E x x x2 x x2 x x2 x | %130
 F>Ac B/A/G/F/_E D z z G, z z | C z z A, z z B,G, B D_EF | G>_EF E(g/_e/)B C z z B, z z | %133
 A, z z F/(c'/b/a/g/f/) z _ED (D/4E/4F/)(d/B/)E | B,>DF (_E/D/C/B,/)d F>Ac (B/A/G/F/)_e | %135
 B, x x x3 x6 |][M:3/8] x3 | x3 | x3 | x3 | x3 | x3 | x3 | x3 | x3 | x3 | x3 | x3 | x3 | x3 | x3 | %151
 x3 | x3 | x3 | x3 | x3 | x3 | x3 | x3 | x3 | x3 | x3 | x3 | x3 | x3 | x3 | x3 | x3 | x3 | x3 | %170
 x3 | x3 | x3 | x3 | x3 | x3 | x3 | x3 | x3 | x3 | x3 | x3 | x3 | x3 | x3 | x3 | x3 | x3 | x AG | %189
 D3 :: x3 | x3 | x3 | x3 | x3 | x3 | x3 | x3 | x3 | x3 | x3 | x3 | x3 | x3 | x3 | x3 | x3 | x3 | %208
 x3 | x3 | x3 | x3 | x3 | x3 | x3 | x3 | x3 | x3 | x3 | x3 | x3 | x3 | x3 | x3 | x3 | x3 | x3 | %227
 x3 | x3 | x3 | x3 | x3 | x3 | x3 | x3 | x3 | x3 | x3 | x3 | x3 | x3 | x3 | x3 | x3 | x3 | x3 | %246
 x3 | x3 | x3 | x3 | x3 | x3 | x3 | x3 | x3 | x3 | x3 | x3 | x3 | x3 | x3 | x3 | x3 | x3 | x3 | %265
 x3 | x3 | x3 | x3 | x3 | x2 D | G,3 :| %272
V:3
 D2 x2 x4 | c-(c/4d/8c/8B/4c/4 Tc3/4B/8c/8d/A/) B x x2 | x8 | d2 x2 D/ x/ x x =F | %4
 E x x2 B/ x/ x x2 | x8 | x8 | G2 x2 E x x2 | x4 ^F/ x/ x x2 | %9
 A/4BG/4B/4d/4 x2 (G^F) =F3/4(G/8_A/8G/4F/4_E/4F/8D/8) | C/ x/ x x2 _A, x x2 | x4 x c F x | %12
 _G2 x2 c/ x/ x x2 | x8 | =B2 x2 G x z _A | F x x (_e/=B/) c/>(_B/_A/4G/4A/4c/4) x2 | %16
 (c=B) dd x x x _e | _e/-e/4(d/4c/4d/4c/8_B/8c/8A/8) x2 x4 | x8 | x8 | =A2 x A A x x2 | x8 |] %22
[M:2/2] x8 | x8 | d x c x B x A x | x4 ^F x G x | =E x ^F x G=F/_E/ d x | c x x2 c/_e/d/c/ x2 | %28
 x8 | x8 | x8 | x8 | x2 dd c x cc | B x B=B (G/F/)(F/_E/) x2 | x8 | x8 | x8 | x8 | x8 | x8 | x8 | %41
 x4 e x e x | d z ^c z dddd | dd d^c/=B/ c x dA | _B x x A AG/F/ GE | F/E/D/E/ x2 x4 | x8 | %47
 x4 _E x =E x | ^F x x2 G=F/E/ x2 | E x x2 E x d x | d x x d ^c x x d | d x d x d x ^c x | %52
 =c x =B x _B x A x | A x G x G x x =G | F x x ^g f x ^f x | x8 | x2 x d d4 | ^c4 d4 | d^cd=B c4 | %59
 x8 | x8 | x8 | x8 | x8 | x8 | x8 | x8 | x8 | x8 | x8 | x8 | x8 | x8 | =B x _e x =d x df | %74
 x2 cc c x =B x | G x F x ^F x D x | _E x x2 x4 | x8 | cB/A/ B x B x x2 | x ddd dc/B/ cd | %80
 _eeee ed/c/ de | _ed dc cB x2 | z FFF FG/F/ _ED | _EBBB B z FF | d x x2 x B x2 | x8 | x8 | x8 | %88
 x8 | x8 | x8 | x8 | x8 | x8 | x8 | x2 x d _e x x A | d x x d d x ^c x | =c z B z B z A z | %98
 A x G/ z/ z G/ x/ x F z | F/ x/ x x2 _E/ x/ x x2 | x8 | x2 F x _EE/D/ E z | x8 | %103
 ^c3/2 x/ x2 =cBBB | A z A z d z G z | F x Fd dc/B/ c c | c(_e/c/) dA B(e/c/) dA | %107
 ABBA B>c A3/2 x/ | x8 | x8 | x8 | x8 | x8 | x8 | c3 x x4 | A x x2 B4 |][M:12/8] x6 dcB BA z | %117
 z cB z AB z B>B A x2 | F z z _E z D C z _B, x2 x | B x x x2 x D x x x x x | dc x x x x cB x x dc | %121
 x12 | x6 G x z z z x | D x x x G x x2 x4 | x6 G=F x x x x | F_E x x x x _ed x x x x | %126
 ef x x x x d_e x x x c | c x x B x x F x x x x x | G x x x x F F x x x x d | %129
 g x x x2 x x2 x x2 x | x x z z z x c x x =B x x | G x x F x x x x g B x x | %132
 x x x x2 D B x x c x x | c x x x2 x x AB x x x | D x x x x x dc x x x x | _ed x x3 x6 |] %136
[M:3/8] x3 | x3 | x3 | x3 | x3 | x3 | x3 | x3 | x3 | x3 | x3 | x3 | x3 | x3 | x3 | x3 | x3 | x3 | %154
 x3 | x3 | x3 | x3 | x3 | x3 | x3 | x3 | x3 | x3 | x3 | x3 | x3 | x3 | x3 | x3 | x3 | x3 | x3 | %173
 x3 | x3 | x3 | x3 | x3 | x3 | x3 | x3 | x3 | x3 | x3 | x3 | x3 | x3 | x3 | x x A, | ^F3 :: x3 | %191
 x3 | x3 | x3 | x3 | x3 | x3 | x3 | x3 | x3 | x3 | x3 | x3 | x3 | x3 | x3 | x3 | x3 | x3 | x3 | %210
 x3 | x3 | x3 | x3 | x3 | x3 | x3 | x3 | x3 | x3 | x3 | x3 | x3 | x3 | x3 | x3 | x3 | x3 | x3 | %229
 x3 | x3 | x3 | x3 | x3 | x3 | x3 | x3 | x3 | x3 | x3 | x3 | x3 | x3 | x3 | x3 | x3 | x3 | x3 | %248
 x3 | x3 | x3 | x3 | x3 | x3 | x3 | x3 | x3 | x3 | x3 | x3 | x3 | x3 | x3 | x3 | x3 | x3 | x3 | %267
 x3 | x3 | x3 | x2 c | B3 :| %272
V:4
 G,2 x2 A,2 x2 | x4 G, x x2 | x2 dd d/-d/4(_e/4d/4c/4B/4c/8A/8) x2 | x8 | x8 | x8 | x8 | x8 | x8 | %9
 D x x2 x4 | x8 | x8 | x8 | x8 | D2 x2 x4 | x2 x G _E x x2 | D x x G x x x G | x8 | x8 | x8 | %20
 C2 x ^C D x x2 | x8 |][M:2/2] x8 | x8 | x8 | x8 | x8 | x8 | x8 | x8 | x8 | x8 | x8 | x8 | x8 | %35
 x8 | x8 | x8 | x8 | x8 | x8 | x8 | x8 | x4 E x x2 | D z x2 x4 | x8 | x8 | x8 | x8 | x8 | x8 | %51
 x4 x2 E x | x4 G x F x | x8 | x8 | G x x2 x4 | x8 | x8 | x8 | D4 D4 | D4 D4 | D4 D4 | D4 D4 | x8 | %64
 x8 | x8 | x8 | x8 | x8 | x8 | x8 | x8 | x8 | DGGG GF/_E/ FD | x2 x _E D x x2 | x8 | x8 | x8 | %78
 x2 G x G x x2 | x FFF x4 | x GGG x4 | x8 | x8 | x4 D x x2 | x8 | x8 | x8 | x8 | x8 | x8 | x8 | %91
 x8 | x8 | x8 | x8 | x8 | x8 | x4 G x x2 | x8 | x8 | x8 | x8 | D x x2 D x x2 | x8 | x2 D x G x x2 | %105
 x8 | x8 | x8 | x8 | x8 | x8 | x8 | x8 | x8 | x8 | x4 D4 |][M:12/8] x12 | x12 | x12 | x12 | %120
 x6 D x x x x x | x12 | x12 | x12 | x12 | x12 | x12 | x12 | x x x x x x x x x x x F | x12 | %130
 x6 x x x D x x | x12 | x6 G x x G x x | F x x x2 x x x x x x x | x12 | F x x x3 x6 |][M:3/8] x3 | %137
 x3 | x3 | x3 | x3 | x3 | x3 | x3 | x3 | x3 | x3 | x3 | x3 | x3 | x3 | x3 | x3 | x3 | x3 | x3 | %156
 x3 | x3 | x3 | x3 | x3 | x3 | x3 | x3 | x3 | x3 | x3 | x3 | x3 | x3 | x3 | x3 | x3 | x3 | x3 | %175
 x3 | x3 | x3 | x3 | x3 | x3 | x3 | x3 | x3 | x3 | x3 | x3 | x3 | x3 | x3 :: x3 | x3 | x3 | x3 | %194
 x3 | x3 | x3 | x3 | x3 | x3 | x3 | x3 | x3 | x3 | x3 | x3 | x3 | x3 | x3 | x3 | x3 | x3 | x3 | %213
 x3 | x3 | x3 | x3 | x3 | x3 | x3 | x3 | x3 | x3 | x3 | x3 | x3 | x3 | x3 | x3 | x3 | x3 | x3 | %232
 x3 | x3 | x3 | x3 | x3 | x3 | x3 | x3 | x3 | x3 | x3 | x3 | x3 | x3 | x3 | x3 | x3 | x3 | x3 | %251
 x3 | x3 | x3 | x3 | x3 | x3 | x3 | x3 | x3 | x3 | x3 | x3 | x3 | x3 | x3 | x3 | x3 | x3 | x3 | %270
 x3 | D3 :| %272

